X:1
B:Jardins d'amour
O:Wallonie
M:2/4
L:1/8
K:C
z e ef | g3 f | e2 d2 | cc dd | cc dd | c2 ce |
|: ce cd/e/ | gg dd | g2 d2 | g4- | ge ef |
g3 f | e2 d2 | cc dd | cc dd | c2 ce :|
ce cd/e/ | gg dd | g2 d2 | g4- | g4- | g4 ||
W:Amants, amants, amusez-vous, amusez-vous
W:Dans ce p'tit jardin d'amourette,
W:Dans ce lieu d'amour,
W:Amants, amants, a deux genoux, a deux genoux
W:Dans ce p'tit jardin d'amourette,
W:Dans ce lieu d'amour,
W:Amants, amants, embrassez-vous, embrassez-vous
W:Dans ce p'tit jardin d'amourette,
W:Dans ce lieu d'amour,
W:Amants, amants, sur les deux joues, sur les deux joues
W:Dans ce p'tit jardin d'amourette,
W:Dans ce lieu d'amour,
W:Amants, amants, relevez-vous, relevez-vous
